src/assets/filled/EmptyWalletChange.svg

<svg width="24" height="24" viewBox="0 0 24 24"  xmlns="http://www.w3.org/2000/svg">
<path d="M5 15C3.98 15 3.04 15.39 2.33 16.03C2.17 16.17 2.02 16.32 1.89 16.49C1.33 17.18 1 18.05 1 19C1 21.21 2.8 23 5 23C5.96 23 6.83 22.66 7.52 22.11C8.08 21.64 8.52 21.03 8.76 20.33C8.92 19.92 9 19.47 9 19C9 16.8 7.21 15 5 15ZM7.4 18.23C7.4 18.51 7.18 18.72 6.91 18.72C6.64 18.72 6.42 18.51 6.42 18.23V18.13C6.42 18.02 6.34 17.93 6.23 17.93H4.23C4.33 18.12 4.31 18.35 4.15 18.51C4.06 18.6 3.94 18.65 3.8 18.65C3.68 18.65 3.55 18.6 3.46 18.51L2.74 17.79C2.7 17.75 2.66 17.69 2.63 17.63C2.59 17.51 2.59 17.38 2.63 17.26C2.66 17.21 2.69 17.14 2.74 17.1L3.46 16.39C3.65 16.19 3.96 16.19 4.14 16.39C4.3 16.54 4.32 16.78 4.22 16.96H6.23C6.87 16.96 7.39 17.48 7.39 18.13V18.23H7.4ZM6.2 21.76C6.07 21.76 5.94 21.72 5.85 21.62C5.69 21.47 5.67 21.23 5.77 21.05H3.76C3.12 21.05 2.6 20.53 2.6 19.88V19.78C2.6 19.5 2.82 19.29 3.09 19.29C3.36 19.29 3.58 19.5 3.58 19.78V19.88C3.58 19.99 3.66 20.08 3.77 20.08H5.78C5.68 19.89 5.7 19.66 5.86 19.5C6.05 19.31 6.36 19.31 6.54 19.5L7.26 20.22C7.3 20.26 7.34 20.32 7.37 20.38C7.41 20.5 7.41 20.63 7.37 20.75C7.34 20.8 7.3 20.86 7.26 20.9L6.54 21.61C6.45 21.71 6.32 21.76 6.2 21.76Z" />
<path d="M14.85 3.94999V7.74999H13.35V3.94999C13.35 3.67999 13.11 3.54999 12.95 3.54999C12.9 3.54999 12.85 3.55999 12.8 3.57999L4.87 6.56999C4.34 6.76999 4 7.26999 4 7.83999V8.50999C3.09 9.18999 2.5 10.28 2.5 11.51V7.83999C2.5 6.64999 3.23 5.58999 4.34 5.16999L12.28 2.16999C12.5 2.08999 12.73 2.04999 12.95 2.04999C13.95 2.04999 14.85 2.85999 14.85 3.94999Z" />
<path d="M21.4999 14.5V15.5C21.4999 15.77 21.2899 15.99 21.0099 16H19.5499C19.0199 16 18.5399 15.61 18.4999 15.09C18.4699 14.78 18.5899 14.49 18.7899 14.29C18.9699 14.1 19.2199 14 19.4899 14H20.9999C21.2899 14.01 21.4999 14.23 21.4999 14.5Z" />
<path d="M19.48 12.95H20.5C21.05 12.95 21.5 12.5 21.5 11.95V11.51C21.5 9.44 19.81 7.75 17.74 7.75H6.26C5.41 7.75 4.63 8.03 4 8.51C3.09 9.19 2.5 10.28 2.5 11.51V13.29C2.5 13.67 2.9 13.91 3.26 13.79C3.82 13.6 4.41 13.5 5 13.5C8.03 13.5 10.5 15.97 10.5 19C10.5 19.72 10.31 20.51 10.01 21.21C9.85 21.57 10.1 22 10.49 22H17.74C19.81 22 21.5 20.31 21.5 18.24V18.05C21.5 17.5 21.05 17.05 20.5 17.05H19.63C18.67 17.05 17.75 16.46 17.5 15.53C17.3 14.77 17.54 14.03 18.04 13.55C18.41 13.17 18.92 12.95 19.48 12.95ZM14 12.75H9C8.59 12.75 8.25 12.41 8.25 12C8.25 11.59 8.59 11.25 9 11.25H14C14.41 11.25 14.75 11.59 14.75 12C14.75 12.41 14.41 12.75 14 12.75Z" />
</svg>

<?xml version="1.0" encoding="UTF-8"?>
<svg width="24" height="24" viewBox="0 0 24 24" xmlns="http://www.w3.org/2000/svg">
 <path d="m5 15c-1.02 0-1.96 0.39-2.67 1.03-0.16 0.14-0.31 0.29-0.44 0.46-0.56 0.69-0.89 1.56-0.89 2.51 0 2.21 1.8 4 4 4 0.96 0 1.83-0.34 2.52-0.89 0.56-0.47 1-1.08 1.24-1.78 0.16-0.41 0.24-0.86 0.24-1.33 0-2.2-1.79-4-4-4zm2.4 3.23c0 0.28-0.22 0.49-0.49 0.49s-0.49-0.21-0.49-0.49v-0.1c0-0.11-0.08-0.2-0.19-0.2h-2c0.1 0.19 0.08 0.42-0.08 0.58-0.09 0.09-0.21 0.14-0.35 0.14-0.12 0-0.25-0.05-0.34-0.14l-0.72-0.72c-0.04-0.04-0.08-0.1-0.11-0.16-0.04-0.12-0.04-0.25 0-0.37 0.03-0.05 0.06-0.12 0.11-0.16l0.72-0.71c0.19-0.2 0.5-0.2 0.68 0 0.16 0.15 0.18 0.39 0.08 0.57h2.01c0.64 0 1.16 0.52 1.16 1.17v0.1h0.01zm-1.2 3.53c-0.13 0-0.26-0.04-0.35-0.14-0.16-0.15-0.18-0.39-0.08-0.57h-2.01c-0.64 0-1.16-0.52-1.16-1.17v-0.1c0-0.28 0.22-0.49 0.49-0.49s0.49 0.21 0.49 0.49v0.1c0 0.11 0.08 0.2 0.19 0.2h2.01c-0.1-0.19-0.08-0.42 0.08-0.58 0.19-0.19 0.5-0.19 0.68 0l0.72 0.72c0.04 0.04 0.08 0.1 0.11 0.16 0.04 0.12 0.04 0.25 0 0.37-0.03 0.05-0.07 0.11-0.11 0.15l-0.72 0.71c-0.09 0.1-0.22 0.15-0.34 0.15z"/>
 <path d="m14.85 3.95v3.8h-1.5v-3.8c0-0.27-0.24-0.4-0.4-0.4-0.05 0-0.1 0.01-0.15 0.03l-7.93 2.99c-0.53 0.2-0.87 0.7-0.87 1.27v0.67c-0.91 0.68-1.5 1.77-1.5 3v-3.67c0-1.19 0.73-2.25 1.84-2.67l7.94-3c0.22-0.08 0.45-0.12 0.67-0.12 1 0 1.9 0.81 1.9 1.9z"/>
 <path d="m21.5 14.5v1c0 0.27-0.21 0.49-0.49 0.5h-1.46c-0.53 0-1.01-0.39-1.05-0.91-0.03-0.31 0.09-0.6 0.29-0.8 0.18-0.19 0.43-0.29 0.7-0.29h1.51c0.29 0.01 0.5 0.23 0.5 0.5z"/>
 <path d="m19.48 12.95h1.02c0.55 0 1-0.45 1-1v-0.44c0-2.07-1.69-3.76-3.76-3.76h-11.48c-0.85 0-1.63 0.28-2.26 0.76-0.91 0.68-1.5 1.77-1.5 3v1.78c0 0.38 0.4 0.62 0.76 0.5 0.56-0.19 1.15-0.29 1.74-0.29 3.03 0 5.5 2.47 5.5 5.5 0 0.72-0.19 1.51-0.49 2.21-0.16 0.36 0.09 0.79 0.48 0.79h7.25c2.07 0 3.76-1.69 3.76-3.76v-0.19c0-0.55-0.45-1-1-1h-0.87c-0.96 0-1.88-0.59-2.13-1.52-0.2-0.76 0.04-1.5 0.54-1.98 0.37-0.38 0.88-0.6 1.44-0.6zm-5.48-0.2h-5c-0.41 0-0.75-0.34-0.75-0.75s0.34-0.75 0.75-0.75h5c0.41 0 0.75 0.34 0.75 0.75s-0.34 0.75-0.75 0.75z"/>
</svg>
